X:1
T: Mr. Martin's compliments to Dr. MacDonald
C:William Martin
R:Strathspey
Q: 128
K:F
M:4/4
L:1/16
|:CB,|A,3C F3C DB,3 D3C|=B,3D G3F EC3 C3G|F3c Ac3 F3d Bd3|ce3 ce3 f3c AF3|
A,3C F3C DB,3 D3C|=B,3D G3F EC3 C3G|F3c Ac3 F3d Bd3|cf3 efge f4 f2g2|
f3c a3f c3f Ac3|BG3 g3b eg3 c3e|f3c a3f c3f Ac3|B3g eg3 c3g fa3|
f3c a3f c3f Ac3|BG3 g3b eg3 c3B|((3A2c2f2) ((3B2d2f2) ((3e2g2b2) ((3c2f2a2) |((3b2g2e2) ((3a2f2c2) f6:|
